files/resources/svgs/general/s-arrow-long-right.svg

<svg width="24" height="24" viewBox="0 0 24 24" fill="none" xmlns="http://www.w3.org/2000/svg">
<path fill-rule="evenodd" clip-rule="evenodd" d="M16.7197 7.71967C17.0126 7.42678 17.4874 7.42678 17.7803 7.71967L21.5303 11.4697C21.8232 11.7626 21.8232 12.2374 21.5303 12.5303L17.7803 16.2803C17.4874 16.5732 17.0126 16.5732 16.7197 16.2803C16.4268 15.9874 16.4268 15.5126 16.7197 15.2197L19.1893 12.75H3C2.58579 12.75 2.25 12.4142 2.25 12C2.25 11.5858 2.58579 11.25 3 11.25H19.1893L16.7197 8.78033C16.4268 8.48744 16.4268 8.01256 16.7197 7.71967Z" fill="#0F172A"/>
</svg>

<svg xmlns="http://www.w3.org/2000/svg" viewBox="0 0 24 24" fill="currentColor" aria-hidden="true">
  <path fill-rule="evenodd" d="M16.72 7.72a.75.75 0 011.06 0l3.75 3.75a.75.75 0 010 1.06l-3.75 3.75a.75.75 0 11-1.06-1.06l2.47-2.47H3a.75.75 0 010-1.5h16.19l-2.47-2.47a.75.75 0 010-1.06z" clip-rule="evenodd"/>
</svg>
